assets/Atm sign/Flat/atm_sign_flat.svg

<svg width="32" height="32" viewBox="0 0 32 32" fill="none" xmlns="http://www.w3.org/2000/svg">
<path d="M2 6C2 3.79086 3.79086 2 6 2H26C28.2091 2 30 3.79086 30 6V26C30 28.2091 28.2091 30 26 30H6C3.79086 30 2 28.2091 2 26V6Z" fill="#00A6ED"/>
<path d="M12.24 12.25C11.8258 12.25 11.49 12.5858 11.49 13C11.49 13.4142 11.8258 13.75 12.24 13.75H14.23V18.52C14.23 18.9342 14.5658 19.27 14.98 19.27C15.3942 19.27 15.73 18.9342 15.73 18.52V13.75H17.71C18.1242 13.75 18.46 13.4142 18.46 13C18.46 12.5858 18.1242 12.25 17.71 12.25H12.24Z" fill="white"/>
<path d="M26.8472 12.4054C26.9046 12.4496 26.9554 12.5019 26.9979 12.5607C27.0117 12.5796 27.0244 12.599 27.0361 12.6189C27.1021 12.7306 27.14 12.8609 27.14 13V18.52C27.14 18.9342 26.8042 19.27 26.39 19.27C25.9758 19.27 25.64 18.9342 25.64 18.52V14.8106L23.9703 16.4803C23.8226 16.628 23.6286 16.7013 23.435 16.7C23.241 16.7013 23.0466 16.6277 22.8988 16.4794L21.24 14.815V18.52C21.24 18.9342 20.9042 19.27 20.49 19.27C20.0758 19.27 19.74 18.9342 19.74 18.52V13.0002C19.7401 12.8985 19.7604 12.8007 19.7971 12.7123C19.8339 12.6237 19.8884 12.5407 19.9606 12.4688C20.0324 12.3971 20.1152 12.3431 20.2035 12.3067C20.2918 12.2701 20.3885 12.25 20.49 12.25C20.5917 12.2501 20.6893 12.2704 20.7777 12.3072C20.8663 12.3439 20.9493 12.3984 21.0212 12.4706L23.4359 14.8934L25.8596 12.4697C25.9399 12.3894 26.0339 12.3311 26.1341 12.2948C26.2105 12.2671 26.2927 12.2514 26.3784 12.2501L26.39 12.25C26.5071 12.25 26.6179 12.2768 26.7167 12.3247C26.7622 12.3467 26.806 12.3736 26.8472 12.4054Z" fill="white"/>
<path d="M8.07505 12.3075C8.33746 12.3075 8.80764 12.414 9.02785 12.8789L9.03182 12.8873L11.4718 18.2073C11.6444 18.5838 11.4792 19.029 11.1027 19.2017C10.7262 19.3744 10.281 19.2092 10.1083 18.8327L9.70347 17.95H6.44662L6.04176 18.8327C5.86908 19.2092 5.42388 19.3744 5.04738 19.2017C4.67088 19.029 4.50565 18.5838 4.67833 18.2073L7.12219 12.8789C7.3424 12.414 7.81263 12.3075 8.07505 12.3075ZM8.07505 14.3994L7.13459 16.45H9.01551L8.07505 14.3994Z" fill="white"/>
</svg>

<svg xmlns="http://www.w3.org/2000/svg" width="32" height="32" fill="none"><path fill="#00A6ED" d="M2 6a4 4 0 0 1 4-4h20a4 4 0 0 1 4 4v20a4 4 0 0 1-4 4H6a4 4 0 0 1-4-4V6Z"/><path fill="#fff" d="M12.24 12.25a.75.75 0 0 0 0 1.5h1.99v4.77a.75.75 0 0 0 1.5 0v-4.77h1.98a.75.75 0 0 0 0-1.5h-5.47ZM26.847 12.405a.752.752 0 0 1 .293.595v5.52a.75.75 0 0 1-1.5 0v-3.71l-1.67 1.67a.748.748 0 0 1-.535.22.748.748 0 0 1-.536-.22l-1.659-1.665v3.705a.75.75 0 0 1-1.5 0V13a.753.753 0 0 1 .463-.693.746.746 0 0 1 .818.164l2.415 2.422 2.424-2.423a.748.748 0 0 1 .518-.22h.012a.747.747 0 0 1 .457.155ZM8.075 12.307c.262 0 .733.107.953.572l.004.008 2.44 5.32a.75.75 0 0 1-1.364.626l-.405-.883H6.447l-.405.883a.75.75 0 1 1-1.364-.626l2.444-5.328c.22-.465.69-.572.953-.572Zm0 2.092-.94 2.051h1.88l-.94-2.05Z"/></svg>
